icons/printer.svg

<svg xmlns="http://www.w3.org/2000/svg" xmlns:osb="http://www.openswatchbook.org/uri/2009/osb" id="svg7384" style="enable-background:new" width="22" height="22" version="1.1">
 <defs id="defs7386">
  <style id="current-color-scheme" type="text/css">
   .ColorScheme-Text { color:#d3dae3; } .ColorScheme-Highlight { color:#5294e2; } .ColorScheme-ButtonBackground { color:#d3dae3; }
  </style>
  <linearGradient id="linearGradient5606" osb:paint="solid">
   <stop id="stop5608" style="stop-color:currentColor;stop-opacity:1;" offset="0"/>
  </linearGradient>
 </defs>
 <g id="printer" transform="translate(-505.0006,125.00672)">
  <rect id="rect4140" style="opacity:0;fill:#2b0000;fill-opacity:0.40392157;fill-rule:nonzero;stroke:none;stroke-width:1;stroke-linecap:round;stroke-linejoin:round;stroke-miterlimit:4;stroke-dasharray:none;stroke-dashoffset:0;stroke-opacity:1" width="22" height="22" x="505" y="-125.01"/>
  <path id="path3520-4" style="opacity:1;fill:currentColor;fill-opacity:1;stroke:none" class="ColorScheme-Text" d="M 6,3 6,6 16,6 16,3 6,3 Z M 3.2851562,7 C 2.6423062,7 2,7.5826756 2,8.1660156 L 2,12.833984 C 2,13.417324 2.6423062,14 3.2851562,14 L 5,14 l 0,-2 12,0 0,2 1.714844,0 C 19.357694,14 20,13.417324 20,12.833984 L 20,8.1660156 C 20,7.5826756 19.357694,7 18.714844,7 L 3.2851562,7 Z M 6,13 l 0,6 10,0 0,-6 -10,0 z" transform="translate(505.0006,-125.00672)"/>
 </g>
</svg>

<?xml version="1.0" encoding="UTF-8" standalone="no"?>
<!-- Created with Inkscape (http://www.inkscape.org/) -->

<svg
   xmlns:osb="http://www.openswatchbook.org/uri/2009/osb"
   xmlns:dc="http://purl.org/dc/elements/1.1/"
   xmlns:cc="http://creativecommons.org/ns#"
   xmlns:rdf="http://www.w3.org/1999/02/22-rdf-syntax-ns#"
   xmlns:svg="http://www.w3.org/2000/svg"
   xmlns="http://www.w3.org/2000/svg"
   xmlns:sodipodi="http://sodipodi.sourceforge.net/DTD/sodipodi-0.dtd"
   xmlns:inkscape="http://www.inkscape.org/namespaces/inkscape"
   sodipodi:docname="printer.svgz"
   inkscape:export-filename="/home/sam/source-symbolic.png"
   inkscape:export-xdpi="270"
   inkscape:export-ydpi="270"
   height="22"
   id="svg7384"
   style="enable-background:new"
   version="1.1"
   inkscape:version="0.91 r13725"
   width="22">
  <sodipodi:namedview
     inkscape:bbox-nodes="true"
     inkscape:bbox-paths="false"
     bordercolor="#ebdbb2"
     borderlayer="false"
     borderopacity="1"
     inkscape:current-layer="layer12"
     inkscape:cx="10.729932"
     inkscape:cy="11.674367"
     gridtolerance="10"
     inkscape:guide-bbox="true"
     guidetolerance="10"
     id="namedview88"
     inkscape:object-nodes="true"
     inkscape:object-paths="true"
     objecttolerance="10"
     pagecolor="#ebdbb2"
     inkscape:pageopacity="0"
     inkscape:pageshadow="2"
     showborder="true"
     showgrid="false"
     showguides="true"
     inkscape:showpageshadow="false"
     inkscape:snap-bbox="true"
     inkscape:snap-bbox-edge-midpoints="false"
     inkscape:snap-bbox-midpoints="true"
     inkscape:snap-center="false"
     inkscape:snap-global="true"
     inkscape:snap-grids="true"
     inkscape:snap-intersection-paths="true"
     inkscape:snap-midpoints="true"
     inkscape:snap-nodes="true"
     inkscape:snap-object-midpoints="true"
     inkscape:snap-others="true"
     inkscape:snap-page="false"
     inkscape:snap-smooth-nodes="true"
     inkscape:snap-to-guides="true"
     inkscape:window-height="845"
     inkscape:window-maximized="1"
     inkscape:window-width="1543"
     inkscape:window-x="57"
     inkscape:window-y="31"
     inkscape:zoom="12.239653">
    <inkscape:grid
       color="#ebdbb2"
       dotted="false"
       empcolor="#ebdbb2"
       empopacity="0.4627451"
       empspacing="4"
       enabled="true"
       id="grid4866"
       opacity="0.16470588"
       originx="-264.0004"
       originy="-336.00672"
       snapvisiblegridlinesonly="true"
       spacingx="0.25px"
       spacingy="0.25px"
       type="xygrid"
       visible="true" />
  </sodipodi:namedview>
  <metadata
     id="metadata90">
    <rdf:RDF>
      <cc:Work
         rdf:about="">
        <dc:format>image/svg+xml</dc:format>
        <dc:type
           rdf:resource="http://purl.org/dc/dcmitype/StillImage" />
        <dc:title>Paper Symbolic Icon Theme</dc:title>
      </cc:Work>
    </rdf:RDF>
  </metadata>
  <title
     id="title8473">Paper Symbolic Icon Theme</title>
  <defs
     id="defs7386">
    <linearGradient
       id="linearGradient5606"
       osb:paint="solid">
      <stop
         id="stop5608"
         offset="0"
         style="stop-color:#ebdbb2;stop-opacity:1;" />
    </linearGradient>
  </defs>
  <g
     inkscape:groupmode="layer"
     id="layer12"
     inkscape:label="actions"
     style="display:inline"
     transform="translate(-505.0006,125.00672)">
    <g
       id="printer"
       inkscape:label="#g4155">
      <rect
         y="-125.00672"
         x="505.00061"
         height="22"
         width="22"
         id="rect4140"
         style="opacity:0;fill:#ebdbb2;fill-opacity:0.40392157;fill-rule:nonzero;stroke:none;stroke-width:1;stroke-linecap:round;stroke-linejoin:round;stroke-miterlimit:4;stroke-dasharray:none;stroke-dashoffset:0;stroke-opacity:1" />
      <path
         id="path3520-4"
         transform="translate(505.0006,-125.00672)"
         d="M 6 3 L 6 6 L 16 6 L 16 3 L 6 3 z M 3.2851562 7 C 2.6423062 7 2 7.5826756 2 8.1660156 L 2 12.833984 C 2 13.417324 2.6423062 14 3.2851562 14 L 5 14 L 5 12 L 17 12 L 17 14 L 18.714844 14 C 19.357694 14 20 13.417324 20 12.833984 L 20 8.1660156 C 20 7.5826756 19.357694 7 18.714844 7 L 3.2851562 7 z M 6 13 L 6 19 L 16 19 L 16 13 L 6 13 z "
         style="opacity:0.72;fill:#ebdbb2;fill-opacity:1;stroke:none" />
    </g>
  </g>
</svg>
